icon-themes/breeze_svg/cmd/lc_framedialog.svg

<svg viewBox="0 0 24 24" xmlns="http://www.w3.org/2000/svg"><path d="m4 4v16h5v-1h-4v-14h14v12h1v-13z" fill="#f47750"/><path d="m5 5v14h4v-1h-3v-12h12v11h1v-12zm5.90625 13a1 1 0 0 0 -.90625 1 1 1 0 0 0 1 1 1 1 0 0 0 1-1 1 1 0 0 0 -1-1 1 1 0 0 0 -.09375 0zm4 0a1 1 0 0 0 -.90625 1 1 1 0 0 0 1 1 1 1 0 0 0 1-1 1 1 0 0 0 -1-1 1 1 0 0 0 -.09375 0zm4 0a1 1 0 0 0 -.90625 1 1 1 0 0 0 1 1 1 1 0 0 0 1-1 1 1 0 0 0 -1-1 1 1 0 0 0 -.09375 0z" fill="#4d4d4d"/></svg>

<svg xmlns="http://www.w3.org/2000/svg" viewBox="0 0 24 24">
 <path 
     style="fill:#f47750" 
     d="M 4 4 L 4 20 L 9 20 L 9 19 L 5 19 L 5 5 L 19 5 L 19 17 L 20 17 L 20 4 L 4 4 z "
     />
 <path 
     style="fill:#4d4d4d" 
     d="M 5 5 L 5 19 L 9 19 L 9 18 L 6 18 L 6 6 L 18 6 L 18 17 L 19 17 L 19 5 L 5 5 z M 10.90625 18 A 1 1 0 0 0 10 19 A 1 1 0 0 0 11 20 A 1 1 0 0 0 12 19 A 1 1 0 0 0 11 18 A 1 1 0 0 0 10.90625 18 z M 14.90625 18 A 1 1 0 0 0 14 19 A 1 1 0 0 0 15 20 A 1 1 0 0 0 16 19 A 1 1 0 0 0 15 18 A 1 1 0 0 0 14.90625 18 z M 18.90625 18 A 1 1 0 0 0 18 19 A 1 1 0 0 0 19 20 A 1 1 0 0 0 20 19 A 1 1 0 0 0 19 18 A 1 1 0 0 0 18.90625 18 z "
     />
 </svg>
